svg/colored/f-7.svg

<svg xmlns="http://www.w3.org/2000/svg" viewBox="30 -115 580 830"><g>
<!--frame-->
<path d="M610 655v-710q0 -25 -17.5 -42.5t-42.5 -17.5h-460q-25 0 -42.5 17.5t-17.5 42.5v710q0 25 17.5 42.5t42.5 17.5h460q25 0 42.5 -17.5 t17.5 -42.5zM550 685h-460q-13 0 -21.5 -8.5t-8.5 -21.5v-710q0 -13 8.5 -21.5t21.5 -8.5h460q13 0 21.5 8.5t8.5 21.5v710q0 13 -8.5 21.5t-21.5 8.5z" />
<!--index-->
<path d="M209 508h16l21 -6l-8 -12l-16 -2zM188 504l-3 -12l-12 -5l-27 1l28 18zM242 553l-14 -13l-16 -5l6 25l16 2zM160 550l23 -12l3 -11l-14 -2l-11 4zM186 546l12 12l10 -2l-2 -15l-1 -17l34 6l11 -2l-2 -12l-44 -2l-2 -35l-4 -6l-2 11l-1 28h-41l-4 5l44 5l-1 14zM142 582 l17 4l9 -6l-2 -8l48 8l24 10l36 -8l22 -28v-30l-33 -72l-68 -10l-10 12l-42 11l53 -3l49 10l21 42l2 36l-13 20l-24 6l-25 -10l-44 -5l-27 -32l-25 -9l38 50l-9 8zM139 600l3 6l14 -4l30 5l-13 10l9 11l12 -5l2 -15l12 2l5 11l-2 8l15 6l9 -11l-15 -12l37 7l17 -10l-6 -11 l-28 3l-90 -12z" />
<!--flower-->
<path d="M417 182q-7 0 -11.5 -7.5t-8.5 -19.5t-9 -18q17 2 29 13.5t12 21.5t-12 10zM243 149q0 -10 11.5 -16.5t23.5 -6.5q6 0 12 4q-1 1 -6.5 10.5t-20.5 11.5q-6 2 -10 2q-10 0 -10 -5zM229 141q-22 0 -41 19.5t-19 40.5q0 32 29 42q7 22 29 22h6 q6 15 21 15q4 0 10 -2q6 11 18 11q3 0 5.5 -0.5t4.5 -0.5l2 -1q11 9 23 9q6 0 9 -3q7 7 15 7q7 0 19 -6l4 1q3 1 6 1q10 0 19 -10l2 1q2 1 5 1.5t6 0.5q12 0 18 -9q14 2 20 2q21 0 34.5 -12t13.5 -33q0 -18 -11 -34t-30 -22q0 -1 -3.5 -10t-5 -13t-6 -10.5t-10.5 -10.5 q-26 -18 -50 -18q-6 0 -8 1q-9 -11 -22 -11q-7 0 -13 3q-6 -4 -16 -4q-13 0 -21 8q-4 0 -9.5 -1.5t-8.5 -1.5q-12 0 -26 8t-19 20zM424 263q0 -7 13 -14.5t13 -19.5t-16 -41q15 3 26 19.5t11 33.5q0 30 -32 30q-15 0 -15 -8zM395 188q17 0 29.5 13t12.5 26q0 8 -4.5 12.5 t-9.5 4.5t-5.5 -8.5t-4.5 -23t-18 -24.5zM368 132q9 0 17 12.5t8 24.5q0 15 -13 15q-15 0 -15 -35q0 -17 3 -17zM210 246q0 -8 7.5 -15t12.5 -7q1 0 3 2q-1 3 -2 11.5t-3.5 13.5t-8.5 5q-9 0 -9 -10zM183 205q0 -21 11.5 -34.5t35.5 -13.5q8 0 11 2l-9 7q-10 4 -13.5 12 t-4 20.5t-1.5 17.5q-4 15 -15 15q-15 0 -15 -26zM330 152q0 -31 15 -31q12 0 12 37q0 11 -14 11q-13 0 -13 -17zM325 132q0 10 -6.5 22.5t-11.5 12.5q-4 0 -8.5 -6t-4.5 -13t5.5 -16.5t12.5 -9.5q13 0 13 10zM298 173q-21 0 -32.5 10t-17.5 20t-13 10q-11 0 -11 -11 q0 -14 14 -28.5t33 -14.5q11 0 27 14zM376 190q15 8 24.5 25.5t11 28.5t1.5 17q0 19 -12 19q-6 0 -7.5 -3.5t-3.5 -15.5q-5 -35 -14 -71zM357 273q0 -13 13 -13q12 0 12 14q0 12 -11 12q-14 0 -14 -13zM352 280q0 10 -10 10q-12 0 -12 -12q0 -11 10 -11q12 0 12 13zM314 264 q11 0 11 12t-12 12q-13 0 -13 -12t14 -12zM281 280q-11 0 -11 -11q0 -12 13 -12q11 0 11 12q0 11 -13 11zM351 177q26 21 26 56q0 10 -4.5 15.5t-9.5 5.5q-12 0 -12 -77zM333 252q-16 0 -16 -16t6 -38.5t13 -23.5q10 10 10 45q0 33 -13 33zM284 229q0 -34 34 -57 q-2 6 -4.5 28t-6.5 38t-9 16q-14 0 -14 -25zM240 254q0 -18 16 -43.5t36 -29.5q-11 18 -17 37t-7 29.5t-4.5 17t-11.5 6.5q-12 0 -12 -17z" />
<!--flower-leave-->
<path d="M358 465q6 0 12 -8t13 -25.5t8 -18.5q19 -14 31 -18q2 1 6.5 30 t4.5 44q0 20 -3 29q-21 8 -24 21q-3 4 -10 12t-11 13t-7.5 14.5t-3.5 18.5q0 23 12.5 31t25.5 8q9 9 26 9q12 0 20 -6q4 4 16 4t25 -13q30 0 30 -44q0 -16 -38 -50q-4 -15 -29 -18q0 -2 -8 -45q10 2 14 2q11 0 16 -21q19 36 43 36q13 0 13 -12q0 -15 -5 -24.5t-9 -11.5 l-5 -3q4 -1 5 -1t4 -1t4 -2.5t3 -4t2.5 -5.5t0.5 -8q0 -13 -10.5 -21t-25.5 -8q-6 0 -22 4q15 -9 15 -23q0 -8 -8 -14.5t-21 -6.5q-17 0 -43 -26l-3 2q-2 2 -7 4.5t-12 2.5q-8 0 -12 -2q-6 1 -14 8.5t-8 18.5q0 9 11 22q-16 -6 -27 -6q-16 0 -16 28q0 26 25 26 q-26 10 -26 37q0 8 7 15t15 7zM400 607q-12 0 -12 -24q0 -28 24 -58q-2 12 -4.5 34t-4 35t-3.5 13zM434 552q0 11 1.5 35t1.5 25q0 5 -5 5q-18 0 -18 -30q0 -23 12 -67q8 6 8 32zM456 608q-13 0 -13 -38t6 -50q6 5 11 32t5 42q0 14 -9 14zM467 528l4 -8q23 46 23 69 q0 12 -6 19t-11 7q-2 0 -2 -2q0 -1 0.5 -3t0.5 -5.5v-8.5q0 -29 -9 -68zM503 589q0 -31 -18 -67q33 29 33 51q0 29 -11 29q-4 0 -4 -13z" />
<!--leaves-->
<path d="M518 -45q-17 0 -49 23q-14 -23 -32 -23q-13 0 -21.5 11.5t-8.5 28.5q0 8 8 32q-24 -18 -35 -18q-25 0 -25 42q0 13 5.5 25t10.5 18l5 6q67 4 76 40q19 7 35 7q17 0 27.5 -7t10.5 -18q0 -18 -23 -30q13 -4 19 -6.5t12.5 -9t6.5 -15.5q0 -20 -15 -29 q15 -18 15 -48q0 -29 -22 -29z" />
<path d="M117 59q0 3 9 13.5t31 21.5t47 11q18 0 24 4q15 -19 40 -19q6 0 22 4q34 -20 34 -58q0 -25 -23 -25q-18 0 -30 9 q-1 -2 -2.5 -8.5t-2 -10t-2 -9.5t-3 -9.5t-3.5 -8.5t-4 -8t-4.5 -5.5t-6 -4t-6.5 -1.5q-33 0 -44 31q-2 -1 -20.5 -10t-30.5 -17q-5 -4 -17 -4q-10 0 -17.5 9t-7.5 20q0 13 15.5 30.5t31.5 22.5q-30 6 -30 22z" />
</g></svg>

<svg xmlns="http://www.w3.org/2000/svg" viewBox="30 -115 580 830"><g>
<!--frame-->
<path d="M610 655v-710q0 -25 -17.5 -42.5t-42.5 -17.5h-460q-25 0 -42.5 17.5t-17.5 42.5v710q0 25 17.5 42.5t42.5 17.5h460q25 0 42.5 -17.5 t17.5 -42.5zM550 685h-460q-13 0 -21.5 -8.5t-8.5 -21.5v-710q0 -13 8.5 -21.5t21.5 -8.5h460q13 0 21.5 8.5t8.5 21.5v710q0 13 -8.5 21.5t-21.5 8.5z" />
<!--index-->
<path d="M209 508h16l21 -6l-8 -12l-16 -2zM188 504l-3 -12l-12 -5l-27 1l28 18zM242 553l-14 -13l-16 -5l6 25l16 2zM160 550l23 -12l3 -11l-14 -2l-11 4zM186 546l12 12l10 -2l-2 -15l-1 -17l34 6l11 -2l-2 -12l-44 -2l-2 -35l-4 -6l-2 11l-1 28h-41l-4 5l44 5l-1 14zM142 582 l17 4l9 -6l-2 -8l48 8l24 10l36 -8l22 -28v-30l-33 -72l-68 -10l-10 12l-42 11l53 -3l49 10l21 42l2 36l-13 20l-24 6l-25 -10l-44 -5l-27 -32l-25 -9l38 50l-9 8zM139 600l3 6l14 -4l30 5l-13 10l9 11l12 -5l2 -15l12 2l5 11l-2 8l15 6l9 -11l-15 -12l37 7l17 -10l-6 -11 l-28 3l-90 -12z" />
<!--flower-->
<path d="M417 182q-7 0 -11.5 -7.5t-8.5 -19.5t-9 -18q17 2 29 13.5t12 21.5t-12 10zM243 149q0 -10 11.5 -16.5t23.5 -6.5q6 0 12 4q-1 1 -6.5 10.5t-20.5 11.5q-6 2 -10 2q-10 0 -10 -5zM229 141q-22 0 -41 19.5t-19 40.5q0 32 29 42q7 22 29 22h6 q6 15 21 15q4 0 10 -2q6 11 18 11q3 0 5.5 -0.5t4.5 -0.5l2 -1q11 9 23 9q6 0 9 -3q7 7 15 7q7 0 19 -6l4 1q3 1 6 1q10 0 19 -10l2 1q2 1 5 1.5t6 0.5q12 0 18 -9q14 2 20 2q21 0 34.5 -12t13.5 -33q0 -18 -11 -34t-30 -22q0 -1 -3.5 -10t-5 -13t-6 -10.5t-10.5 -10.5 q-26 -18 -50 -18q-6 0 -8 1q-9 -11 -22 -11q-7 0 -13 3q-6 -4 -16 -4q-13 0 -21 8q-4 0 -9.5 -1.5t-8.5 -1.5q-12 0 -26 8t-19 20zM424 263q0 -7 13 -14.5t13 -19.5t-16 -41q15 3 26 19.5t11 33.5q0 30 -32 30q-15 0 -15 -8zM395 188q17 0 29.5 13t12.5 26q0 8 -4.5 12.5 t-9.5 4.5t-5.5 -8.5t-4.5 -23t-18 -24.5zM368 132q9 0 17 12.5t8 24.5q0 15 -13 15q-15 0 -15 -35q0 -17 3 -17zM210 246q0 -8 7.5 -15t12.5 -7q1 0 3 2q-1 3 -2 11.5t-3.5 13.5t-8.5 5q-9 0 -9 -10zM183 205q0 -21 11.5 -34.5t35.5 -13.5q8 0 11 2l-9 7q-10 4 -13.5 12 t-4 20.5t-1.5 17.5q-4 15 -15 15q-15 0 -15 -26zM330 152q0 -31 15 -31q12 0 12 37q0 11 -14 11q-13 0 -13 -17zM325 132q0 10 -6.5 22.5t-11.5 12.5q-4 0 -8.5 -6t-4.5 -13t5.5 -16.5t12.5 -9.5q13 0 13 10zM298 173q-21 0 -32.5 10t-17.5 20t-13 10q-11 0 -11 -11 q0 -14 14 -28.5t33 -14.5q11 0 27 14zM376 190q15 8 24.5 25.5t11 28.5t1.5 17q0 19 -12 19q-6 0 -7.5 -3.5t-3.5 -15.5q-5 -35 -14 -71zM357 273q0 -13 13 -13q12 0 12 14q0 12 -11 12q-14 0 -14 -13zM352 280q0 10 -10 10q-12 0 -12 -12q0 -11 10 -11q12 0 12 13zM314 264 q11 0 11 12t-12 12q-13 0 -13 -12t14 -12zM281 280q-11 0 -11 -11q0 -12 13 -12q11 0 11 12q0 11 -13 11zM351 177q26 21 26 56q0 10 -4.5 15.5t-9.5 5.5q-12 0 -12 -77zM333 252q-16 0 -16 -16t6 -38.5t13 -23.5q10 10 10 45q0 33 -13 33zM284 229q0 -34 34 -57 q-2 6 -4.5 28t-6.5 38t-9 16q-14 0 -14 -25zM240 254q0 -18 16 -43.5t36 -29.5q-11 18 -17 37t-7 29.5t-4.5 17t-11.5 6.5q-12 0 -12 -17z" />
<!--flower-leave-->
<path d="M358 465Q364 465 370 457T383 431.5T391 413Q410 399 422 395Q424 396 428.5 425T433 469Q433 489 430 498Q409 506 406 519Q403 523 396 531T385 544T377.5 558.5T374 577Q374 600 386.5 608T412 616Q421 625 438 625Q450 625 458 619Q462 623 474 623T499 610Q529 610 529 566Q529 550 491 516Q487 501 462 498Q462 496 454 453Q464 455 468 455Q479 455 484 434Q503 470 527 470Q540 470 540 458Q540 443 535 433.5T526 422L521 419Q525 418 526 418T530 417T534 414.5T537 410.5T539.5 405T540 397Q540 384 529.5 376T504 368Q498 368 482 372Q497 363 497 349Q497 341 489 334.5T468 328Q451 328 425 302L422 304Q420 306 415 308.5T403 311Q395 311 391 309Q385 310 377 317.5T369 336Q369 345 380 358Q364 352 353 352Q337 352 337 380Q337 406 362 406Q336 416 336 443Q336 451 343 458T358 465ZM400 607Q388 607 388 583Q388 555 412 525Q410 537 407.5 559T403.5 594T400 607ZM434 552Q434 563 435.5 587T437 612Q437 617 432 617Q414 617 414 587Q414 564 426 520Q434 526 434 552ZM456 608Q443 608 443 570T449 520Q455 525 460 552T465 594Q465 608 456 608ZM467 528L471 520Q494 566 494 589Q494 601 488 608T477 615Q475 615 475 613Q475 612 475.5 610T476 604.5V596Q476 567 467 528ZM503 589Q503 558 485 522Q518 551 518 573Q518 602 507 602Q503 602 503 589Z" />
<!--leaves-->
<path d="M518 -45q-17 0 -49 23q-14 -23 -32 -23q-13 0 -21.5 11.5t-8.5 28.5q0 8 8 32q-24 -18 -35 -18q-25 0 -25 42q0 13 5.5 25t10.5 18l5 6q67 4 76 40q19 7 35 7q17 0 27.5 -7t10.5 -18q0 -18 -23 -30q13 -4 19 -6.5t12.5 -9t6.5 -15.5q0 -20 -15 -29 q15 -18 15 -48q0 -29 -22 -29z" />
<path d="M117 59q0 3 9 13.5t31 21.5t47 11q18 0 24 4q15 -19 40 -19q6 0 22 4q34 -20 34 -58q0 -25 -23 -25q-18 0 -30 9 q-1 -2 -2.5 -8.5t-2 -10t-2 -9.5t-3 -9.5t-3.5 -8.5t-4 -8t-4.5 -5.5t-6 -4t-6.5 -1.5q-33 0 -44 31q-2 -1 -20.5 -10t-30.5 -17q-5 -4 -17 -4q-10 0 -17.5 9t-7.5 20q0 13 15.5 30.5t31.5 22.5q-30 6 -30 22z" />
</g></svg>
